X: 1
T: Sunny, Shiny Forest Revised
M: 4/4
L: 1/4
Q: 1/4=160
K: A major
V:1
%%MIDI gchord c2c2
| "A" ceeA | "D" df^cd | "Bm" eA^ce | "E7" ^G2e2 | % measure 1-4
| "A" aece | "F#m" f^fed | "D" dBA^G | "A" A2 z2 | % measure 5-8
| "D" d2 fd | "C#m" e^ceg | "Bm" bABc | "E7" e4 | % measure 9-12
| "A" c'ba^g | "D" afed | "A/C#" cBA^G | "A" A4 | % measure 13-16
```

# 出力
最後に、16小節全てを含んだ楽器指定付きの楽譜をコードブロック中に出力してください。

# 知識

%%MIDI program [番号]コメント等を付け足すことでメロディ楽器番号を指定できます。
この番号はGeneral MIDI Standardの楽器に対応しています。

まず、これで、メロディの楽器を設定できます。（1番はAcoustic Grand Piano）
%%MIDI program 1

次に、これで、コード進行の楽器を設定できます。（64番はSynth Brass 2（シンセブラス2））
%%MIDI chordprog 64

最後に、これで、ベースの楽器を設定できます。（45番はPizzicato Strings（ピチカート・ストリングス））
%%MIDI bassprog 45

これらを用いて、四小節ごとに使うべき楽器を定めてください。
逆に、これら以外（padprog, drumprogなど）は使用できません。

# Examples

```abc
